X: 1
T:Bundle and Go  "CYMRU"
M:6/8
L:1/8
Q:80
C:
S:March
K:HP
|: {g}e3/4f/4|
{gf}g3/2f/2e{gef}e3/2d/2B|
{gf}g3/2{a}f/2g{a}G3/2A/2B|  !
{gf}g3/2f/2e{gef}e3/2d/2B|
{gde}d2{GBG}A{GAG}A2{d}B| |
{gf}g3/2f/2e{gef}e3/2d/2B|  !
{gf}g3/2{a}f/2ga2{GdG}a|
{f}g3/2f/2e{g}e3/2f/2g|
{de}d2{GBG}A{GAG}A2:| |:  !
B|
{Gdc}d2{e}B{Gdc}d2{e}B|
{gf}g3/2{a}f/2g{a}G3/2A/2B|
{Gdc}d2{e}B{Gdc}d2e|  !
{gde}d2{GBG}A{GAG}A2B|1 |
{Gdc}d2{e}B{Gdc}d2{e}B|
{gf}g3/2{a}f/2ga2{GdG}a|  !
{f}g3/2f/2e{g}e3/2f/2g|
{de}d2{GBG}A{GAG}A2:|2 |
{Gdc}d3/2e/2d{gBd}B3/2{g}A/2{d}B|  !
{g}G3/2A/2B{gf}g3/2{a}f/2g|
a2{GdG}ae3/2f/2g|
{de}d2{GBG}A{GAG}A2|]  !
